icon-themes/elementary_svg/cmd/sc_delete.svg

<svg height="16" width="16" xmlns="http://www.w3.org/2000/svg" xmlns:xlink="http://www.w3.org/1999/xlink"><linearGradient id="a" gradientUnits="userSpaceOnUse" x1="8.968921" x2="8.968921" y1="4.009423" y2="15.009423"><stop offset="0" stop-color="#fff"/><stop offset=".09090912" stop-color="#fff" stop-opacity=".235294"/><stop offset=".81818187" stop-color="#fff" stop-opacity=".156863"/><stop offset="1" stop-color="#fff" stop-opacity=".392157"/></linearGradient><path d="m3 4.0312499v9.8228731c0 .158418.2258817.575571 1.03125.943256s2.106482.650521 3.96875.650521c1.8622686 0 3.163382-.282836 3.96875-.650521s1.03125-.784838 1.03125-.943256v-9.8228731h-10z" fill="#e9e9e9"/><path d="m2.5 3.5v10.5c0 .828427 2.4624339 1.5 5.5 1.5 3.037566 0 5.5-.671573 5.5-1.5v-10.5z" fill="none" stroke="#8c8c8c"/><g fill="#fff"><path d="m4.5 5.5748208c.277.092792.5.3702676.5.6221427v8.0302875c0 .251876-.223.379947-.5.287154-.277-.09279-.5-.370268-.5-.622143v-8.030288c0-.251875.223-.3799454.5-.2871532z"/><path d="m11.499999 5.7155823c-.277.092792-.499999.3702677-.499999.6221426v8.0302881c0 .251876.222999.379947.499999.287154.277-.09279.500001-.370268.500001-.622143v-8.0302885c0-.251875-.223001-.3799454-.500001-.2871532z"/><path d="m6.5 5.9043505c.277.011677.5.2251968.5.4787459v8.0836636c0 .253549-.223.44827-.5.436593-.277-.01167-.5-.225197-.5-.478746v-8.0836626c0-.2535491.223-.4482699.5-.4365939z"/><path d="m9.5 5.9043505c-.277001.011677-.5.2251968-.5.4787459v8.0836636c0 .253549.222999.44827.5.436593.277-.01167.500001-.225197.500001-.478746v-8.0836626c0-.2535491-.223001-.4482699-.500001-.4365939z"/></g><path d="m3.5 4.5v9.25c.1473239.09118.4515636.259517.875.375.8725625.237972 2.1788323.375 3.625.375s2.752437-.137028 3.625-.375c.423436-.115483.727676-.283818.875-.375v-9.25h-9z" fill="none" stroke="url(#a)" stroke-linecap="round" stroke-linejoin="round"/><path d="m8 1c-3.5898508 0-6.5.8657221-6.5 1.9336444v1.9336444c0 1.0679223 2.9101492 1.9336443 6.5 1.9336443 3.589851 0 6.5-.865722 6.5-1.9336443v-1.9336444c0-1.0679223-2.910149-1.9336444-6.5-1.9336444z" fill="none" stroke="#8c8c8c"/><path d="m8 1.4531979c-1.7572026 0-3.3544793.2123601-4.46875.5438375-.5571353.1657387-.9846671.3572207-1.25.5438375s-.3125.3184047-.3125.3927715v1.9336444c0 .074367.047167.2061547.3125.3927715.2653329.1866168.6928647.3780987 1.25.5438375 1.1142707.3314774 2.7115474.5438374 4.46875.5438374 1.7572027 0 3.354479-.21236 4.46875-.5438374.557135-.1657388.984667-.3572207 1.25-.5438375s.3125-.3184046.3125-.3927715v-1.9336444c0-.074367-.04717-.2061547-.3125-.3927715-.265333-.1866168-.692865-.3780988-1.25-.5438375-1.114271-.3314774-2.7115473-.5438375-4.46875-.5438375z" fill="#e9e9e9"/><path d="m13.541956 3.1681173a5.5378434 1.1841661 0 1 0 -11.0756867 0 5.5378434 1.1841661 0 0 0 11.0756867 0z" fill="none" stroke="#fff" stroke-linecap="round" stroke-linejoin="round"/><path d="m6 .5c-.277 0-.5.223-.5.5v2c0 .277.223.5.5.5h2c-.277 0-.5-.223-.5-.5s.223-.5.5-.5.5.223.5.5-.223.5-.5.5h2c .277 0 .5-.223.5-.5v-2c0-.277-.223-.5-.5-.5h-4z" fill="#e9e9e9"/><path d="m6 .5c-.277 0-.5.223-.5.5v2c0 .277.223.5.5.5h2c-.277 0-.5-.223-.5-.5 0-.5009502-.000951-.5.5-.5.476067 0 .5.023933.5.5 0 .277-.223.5-.5.5h2c .277 0 .5-.223.5-.5v-2c0-.277-.223-.5-.5-.5z" fill="none" stroke="#8c8c8c"/></svg>

<?xml version="1.0" encoding="UTF-8" standalone="no"?>
<svg
   xmlns:dc="http://purl.org/dc/elements/1.1/"
   xmlns:cc="http://creativecommons.org/ns#"
   xmlns:rdf="http://www.w3.org/1999/02/22-rdf-syntax-ns#"
   xmlns:svg="http://www.w3.org/2000/svg"
   xmlns="http://www.w3.org/2000/svg"
   xmlns:xlink="http://www.w3.org/1999/xlink"
   xmlns:sodipodi="http://sodipodi.sourceforge.net/DTD/sodipodi-0.dtd"
   xmlns:inkscape="http://www.inkscape.org/namespaces/inkscape"
   version="1.1"
   width="16"
   height="16"
   id="svg3162"
   sodipodi:docname="sc_delete.svg"
   inkscape:version="0.92.3 (unknown)"
   inkscape:export-filename="/home/rizmut/Dokumen/Rizmut/Github/libreoffice-style-elementary/images_elementary/cmd/sc_delete.png"
   inkscape:export-xdpi="96"
   inkscape:export-ydpi="96">
  <sodipodi:namedview
     pagecolor="#ffffff"
     bordercolor="#666666"
     borderopacity="1"
     objecttolerance="10"
     gridtolerance="10"
     guidetolerance="10"
     inkscape:pageopacity="0"
     inkscape:pageshadow="2"
     inkscape:window-width="736"
     inkscape:window-height="480"
     id="namedview47"
     showgrid="false"
     inkscape:zoom="14.75"
     inkscape:cx="-1.5254237"
     inkscape:cy="8"
     inkscape:window-x="103"
     inkscape:window-y="127"
     inkscape:window-maximized="0"
     inkscape:current-layer="svg3162" />
  <defs
     id="defs3164">
    <linearGradient
       id="linearGradient4238">
      <stop
         offset="0"
         style="stop-color:#8d909a;stop-opacity:1;"
         id="stop4240" />
      <stop
         id="stop3792"
         style="stop-color:#e5e5e5;stop-opacity:1;"
         offset="0.39999998" />
      <stop
         offset="1"
         style="stop-color:#8d909a;stop-opacity:1;"
         id="stop4242" />
    </linearGradient>
    <linearGradient
       xlink:href="#linearGradient4238"
       id="linearGradient4746"
       gradientUnits="userSpaceOnUse"
       gradientTransform="matrix(0.45754817,0,0,0.47298439,-1.837284,-3.6558699)"
       spreadMethod="reflect"
       x1="10.572186"
       y1="26.410894"
       x2="32.427807"
       y2="26.410894" />
    <linearGradient
       xlink:href="#linearGradient3205-2-2-1"
       id="linearGradient3286-0-8"
       gradientUnits="userSpaceOnUse"
       gradientTransform="matrix(0.33333342,0.01405066,0,0.30511322,0.333331,0.88521945)"
       x1="24"
       y1="15.502284"
       x2="24"
       y2="45" />
    <linearGradient
       id="linearGradient3205-2-2-1">
      <stop
         id="stop3207-1-6-3"
         style="stop-color:#000000;stop-opacity:1"
         offset="0" />
      <stop
         id="stop3209-1-4-9"
         style="stop-color:#000000;stop-opacity:0"
         offset="1" />
    </linearGradient>
    <linearGradient
       xlink:href="#linearGradient3205-2-2-1"
       id="linearGradient4748-3-4"
       gradientUnits="userSpaceOnUse"
       gradientTransform="matrix(0.33333342,0.11166313,0,0.30309867,-4e-6,0.18933422)"
       x1="24"
       y1="13.506023"
       x2="24"
       y2="43" />
    <linearGradient
       xlink:href="#linearGradient3205-2-2-1"
       id="linearGradient3289-0-6"
       gradientUnits="userSpaceOnUse"
       gradientTransform="matrix(0.33333342,0.01405066,0,0.30511322,-0.333335,0.88521945)"
       x1="24"
       y1="15.502284"
       x2="24"
       y2="45" />
    <linearGradient
       y2="43"
       x2="24"
       y1="13.506023"
       x1="24"
       gradientTransform="matrix(0.33333337,0.11166313,0,0.30309867,-2e-8,-0.0262891)"
       gradientUnits="userSpaceOnUse"
       id="linearGradient5141"
       xlink:href="#linearGradient3205-2-2-1" />
    <linearGradient
       y2="28.903023"
       x2="32.180862"
       y1="13.828948"
       x1="32.180862"
       gradientTransform="matrix(0.72972969,0,0,0.72972969,-14.514409,-6.081971)"
       gradientUnits="userSpaceOnUse"
       id="linearGradient5227-8"
       xlink:href="#linearGradient4404-56-1-1" />
    <linearGradient
       id="linearGradient4404-56-1-1">
      <stop
         id="stop4406-5-6-9"
         style="stop-color:#ffffff;stop-opacity:1"
         offset="0" />
      <stop
         id="stop4408-9-5-4"
         style="stop-color:#ffffff;stop-opacity:0.23529412"
         offset="0.09090912" />
      <stop
         id="stop4410-63-5-2"
         style="stop-color:#ffffff;stop-opacity:0.15686275"
         offset="0.81818187" />
      <stop
         id="stop4412-0-6-0"
         style="stop-color:#ffffff;stop-opacity:0.39215687"
         offset="1" />
    </linearGradient>
    <linearGradient
       id="linearGradient4404-5-5-1">
      <stop
         id="stop4406-9-1-0"
         style="stop-color:#ffffff;stop-opacity:1"
         offset="0" />
      <stop
         id="stop4408-7-4-4"
         style="stop-color:#ffffff;stop-opacity:0.23529412"
         offset="0.09090912" />
      <stop
         id="stop4410-6-4-0"
         style="stop-color:#ffffff;stop-opacity:0.15686275"
         offset="0.81818187" />
      <stop
         id="stop4412-1-5-5"
         style="stop-color:#ffffff;stop-opacity:0.39215687"
         offset="1" />
    </linearGradient>
    <linearGradient
       y2="28.903023"
       x2="32.180862"
       y1="13.828948"
       x1="32.180862"
       gradientTransform="matrix(0.72972969,0,0,0.72972969,3.516668,-7.0913942)"
       gradientUnits="userSpaceOnUse"
       id="linearGradient5330"
       xlink:href="#linearGradient4404-5-5-1" />
    <linearGradient
       id="linearGradient4238-0">
      <stop
         offset="0"
         style="stop-color:#8d909a;stop-opacity:1"
         id="stop4240-2" />
      <stop
         offset="1"
         style="stop-color:#e5e5e5;stop-opacity:1"
         id="stop4242-27" />
    </linearGradient>
    <linearGradient
       xlink:href="#linearGradient4238-0"
       id="linearGradient5420"
       gradientUnits="userSpaceOnUse"
       gradientTransform="matrix(0.45754817,0,0,0.47298439,-1.837284,-3.6558699)"
       spreadMethod="reflect"
       x1="34.613369"
       y1="26.410894"
       x2="19.314434"
       y2="26.410894" />
  </defs>
  <metadata
     id="metadata3167">
    <rdf:RDF>
      <cc:Work
         rdf:about="">
        <dc:format>image/svg+xml</dc:format>
        <dc:type
           rdf:resource="http://purl.org/dc/dcmitype/StillImage" />
        <dc:title></dc:title>
      </cc:Work>
    </rdf:RDF>
  </metadata>
  <g
     id="layer2"
     style="display:inline" />
  <g
     id="layer3">
    <path
       style="fill:url(#linearGradient4746);fill-opacity:1;fill-rule:nonzero;stroke:none;stroke-width:1.01884639000000021;marker:none;visibility:visible;display:inline;overflow:visible"
       id="path4744"
       d="m 3,4.03125 0,9.4375 C 3,13.620953 3.2258817,14.02174 4.03125,14.375 4.8366183,14.72826 6.137732,15 8,15 9.8622686,15 11.163382,14.72826 11.96875,14.375 12.774118,14.02174 13,13.620953 13,13.46875 l 0,-9.4375 -10,0 z"
       transform="matrix(1,0,0,1.0408342,0,-0.16461299)" />
    <path
       style="opacity:0.50000000000000000;color:#000000;fill:none;stroke:#161b28;stroke-width:1;stroke-linecap:butt;stroke-linejoin:miter;stroke-miterlimit:4;stroke-opacity:1;stroke-dasharray:none;stroke-dashoffset:0;marker:none;visibility:visible;display:inline;overflow:visible;enable-background:accumulate"
       d="m 2.5,3.5 0,10.5 c 0,0.828427 2.4624339,1.5 5.5,1.5 3.037566,0 5.5,-0.671573 5.5,-1.5 l 0,-10.5 z"
       id="path5019" />
    <path
       style="opacity:0.15;fill:url(#linearGradient5141);fill-opacity:1;fill-rule:nonzero;stroke:none;stroke-width:0.99992186;marker:none;visibility:visible;display:inline;overflow:visible;enable-background:accumulate"
       id="path3772-3-2"
       d="M 4.5,5.5748208 C 4.777,5.6676128 5,5.9450884 5,6.1969635 L 5,14.227251 C 5,14.479127 4.777,14.607198 4.5,14.514405 4.223,14.421615 4,14.144137 4,13.892262 L 4,5.861974 C 4,5.610099 4.223,5.4820286 4.5,5.5748208 z" />
    <path
       style="opacity:0.15;fill:url(#linearGradient4748-3-4);fill-opacity:1;fill-rule:nonzero;stroke:none;stroke-width:0.99992186;marker:none;visibility:visible;display:inline;overflow:visible;enable-background:accumulate"
       id="path3287-8-4"
       d="M 11.499999,5.7155823 C 11.222999,5.8083743 11,6.08585 11,6.3377249 l 0,8.0302881 c 0,0.251876 0.222999,0.379947 0.499999,0.287154 C 11.776999,14.562377 12,14.284899 12,14.033024 L 12,6.0027355 C 12,5.7508605 11.776999,5.6227901 11.499999,5.7155823 z" />
    <path
       style="opacity:0.3;fill:url(#linearGradient3289-0-6);fill-opacity:1;fill-rule:nonzero;stroke:none;stroke-width:0.99992186;marker:none;visibility:visible;display:inline;overflow:visible;enable-background:accumulate"
       id="path3778-2-1"
       d="M 6.5,5.9043505 C 6.777,5.9160275 7,6.1295473 7,6.3830964 L 7,14.46676 C 7,14.720309 6.777,14.91503 6.5,14.903353 6.223,14.891683 6,14.678156 6,14.424607 L 6,6.3409444 C 6,6.0873953 6.223,5.8926745 6.5,5.9043505 z" />
    <path
       style="opacity:0.3;fill:url(#linearGradient3286-0-8);fill-opacity:1;fill-rule:nonzero;stroke:none;stroke-width:0.99992186;marker:none;visibility:visible;display:inline;overflow:visible;enable-background:accumulate"
       id="path3293-9-3"
       d="M 9.5,5.9043505 C 9.222999,5.9160275 9,6.1295473 9,6.3830964 L 9,14.46676 c 0,0.253549 0.222999,0.44827 0.5,0.436593 0.277,-0.01167 0.500001,-0.225197 0.500001,-0.478746 l 0,-8.0836626 C 10.000001,6.0873953 9.777,5.8926745 9.5,5.9043505 z" />
    <path
       style="opacity:1;color:#000000;fill:none;stroke:url(#linearGradient5227-8);stroke-width:1;stroke-linecap:round;stroke-linejoin:round;stroke-miterlimit:4;stroke-opacity:1;stroke-dasharray:none;stroke-dashoffset:0;marker:none;visibility:visible;display:inline;overflow:visible;enable-background:accumulate"
       id="path5208"
       d="m 3.5,4.5 0,9.25 c 0.1473239,0.09118 0.4515636,0.259517 0.875,0.375 C 5.2475625,14.362972 6.5538323,14.5 8,14.5 c 1.4461677,0 2.752437,-0.137028 3.625,-0.375 0.423436,-0.115483 0.727676,-0.283818 0.875,-0.375 l 0,-9.25 -9,0 z" />
    <path
       style="opacity:0.5;color:#000000;fill:none;stroke:#161b28;stroke-width:1;stroke-linecap:butt;stroke-linejoin:miter;stroke-miterlimit:4;stroke-opacity:1;stroke-dasharray:none;stroke-dashoffset:0;marker:none;visibility:visible;display:inline;overflow:visible;enable-background:accumulate"
       d="M 8,1 C 4.4101492,1 1.5,1.8657221 1.5,2.9336444 l 0,1.9336444 c 0,1.0679223 2.9101492,1.9336443 6.5,1.9336443 3.589851,0 6.5,-0.865722 6.5,-1.9336443 l 0,-1.9336444 C 14.5,1.8657221 11.589851,1 8,1 z"
       id="path5019-9" />
    <path
       style="color:#000000;fill:url(#linearGradient5420);fill-opacity:1;fill-rule:nonzero;stroke:none;stroke-width:1.03944016;marker:none;visibility:visible;display:inline;overflow:visible;enable-background:accumulate"
       id="path5418"
       d="m 8,1.46875 c -1.7572026,0 -3.3544793,0.2196475 -4.46875,0.5625 -0.5571353,0.1714263 -0.9846671,0.3694792 -1.25,0.5625 C 2.0159171,2.7867708 1.96875,2.9230812 1.96875,3 l 0,2 c 0,0.076919 0.047167,0.2132292 0.3125,0.40625 0.2653329,0.1930208 0.6928647,0.3910737 1.25,0.5625 1.1142707,0.3428525 2.7115474,0.5625 4.46875,0.5625 1.7572027,0 3.354479,-0.2196475 4.46875,-0.5625 0.557135,-0.1714263 0.984667,-0.3694792 1.25,-0.5625 C 13.984083,5.2132292 14.03125,5.0769189 14.03125,5 l 0,-2 c 0,-0.076919 -0.04717,-0.2132292 -0.3125,-0.40625 -0.265333,-0.1930208 -0.692865,-0.3910737 -1.25,-0.5625 C 11.354479,1.6883975 9.7572027,1.46875 8,1.46875 z"
       transform="matrix(1,0,0,0.96682219,0,0.03317781)" />
    <path
       style="opacity:0.7;color:#000000;fill:none;stroke:url(#linearGradient5330);stroke-width:1.9328866;stroke-linecap:round;stroke-linejoin:round;stroke-miterlimit:4;stroke-opacity:1;stroke-dasharray:none;stroke-dashoffset:0;marker:none;visibility:visible;display:inline;overflow:visible;enable-background:accumulate"
       id="path4564-1-6"
       d="m 33,3.5 a 7,3.5 0 1 1 -14,0 7,3.5 0 1 1 14,0 z"
       transform="matrix(0.79112049,0,0,-0.33833318,-12.56502,4.3522834)" />
    <path
       style="color:#000000;fill:#dcdcdd;fill-opacity:1;fill-rule:nonzero;stroke:none;stroke-width:1.01884639000000021;marker:none;visibility:visible;display:inline;overflow:visible;enable-background:accumulate"
       d="M 6,0.5 C 5.723,0.5 5.5,0.723 5.5,1 l 0,2 c 0,0.277 0.223,0.5 0.5,0.5 l 2,0 C 7.723,3.5 7.5,3.277 7.5,3 7.5,2.723 7.723,2.5 8,2.5 8.277,2.5 8.5,2.723 8.5,3 8.5,3.277 8.277,3.5 8,3.5 l 2,0 c 0.277,0 0.5,-0.223 0.5,-0.5 l 0,-2 C 10.5,0.723 10.277,0.5 10,0.5 l -4,0 z"
       id="rect4605-2-4-3" />
    <path
       style="opacity:0.4;color:#000000;fill:none;stroke:#161b28;stroke-width:1;stroke-linecap:butt;stroke-linejoin:miter;stroke-miterlimit:4;stroke-opacity:1;stroke-dasharray:none;stroke-dashoffset:0;marker:none;visibility:visible;display:inline;overflow:visible;enable-background:accumulate"
       d="M 6,0.5 C 5.723,0.5 5.5,0.723 5.5,1 l 0,2 c 0,0.277 0.223,0.5 0.5,0.5 l 2,0 C 7.723,3.5 7.5,3.277 7.5,3 7.5,2.4990498 7.499049,2.5 8,2.5 8.476067,2.5 8.5,2.523933 8.5,3 8.5,3.277 8.277,3.5 8,3.5 l 2,0 c 0.277,0 0.5,-0.223 0.5,-0.5 l 0,-2 C 10.5,0.723 10.277,0.5 10,0.5 z"
       id="rect4605-3-9" />
  </g>
</svg>
